assets/post/images/redis4.svg

<svg xmlns="http://www.w3.org/2000/svg" width="2314" height="346" overflow="hidden"><defs><clipPath id="a"><path d="M373 1066h2314v346H373z"/></clipPath></defs><g clip-path="url(#a)" transform="translate(-373 -1066)"><path fill="#d74514" fill-rule="evenodd" d="M375.544 1256.54h401.949v133.83H375.544Zm401.949 0H1051.3v133.83H777.493Zm1634.537 0h269.65v133.83h-269.65Z"/><path fill="none" stroke="#000" stroke-linejoin="round" stroke-miterlimit="10" stroke-width="4.583" d="M777.493 1254.25v138.42m273.807-138.42v138.42m477.08-138.42v138.42m456.35-138.42v138.42m427.3-138.42v138.42M373.252 1256.54H2683.98m-2308.436-2.29v138.42m2306.136-138.42v138.42m-2308.428-2.3H2683.98"/><text font-family="Courier New,Courier New_MSFontService,sans-serif" font-size="64" font-weight="400" transform="translate(538.133 1143)">32<tspan x="-38.385" y="77">bits</tspan><tspan x="337.878" y="0">16</tspan><tspan x="299.492" y="77">bits</tspan><tspan x="1989.54" y="0">8</tspan><tspan x="1931.95" y="77">bits</tspan><tspan x="-71.901" y="201" fill="#fff" font-size="73" font-weight="700">bytes</tspan><tspan x="310.091" y="201" fill="#fff" font-size="73" font-weight="700">len</tspan><tspan x="641.422" y="201" fill="#d74514" font-size="73" font-weight="700">entry</tspan><tspan x="1108.13" y="201" fill="#d74514" font-size="73" font-weight="700">entry</tspan><tspan x="1549.96" y="201" fill="#d74514" font-size="73" font-weight="700">entry</tspan><tspan x="1942.55" y="201" fill="#fff" font-size="73" font-weight="700">end</tspan></text></g></svg>

<svg width="2314" height="346" xmlns="http://www.w3.org/2000/svg" xmlns:xlink="http://www.w3.org/1999/xlink" overflow="hidden"><defs><clipPath id="clip0"><rect x="373" y="1066" width="2314" height="346"/></clipPath></defs><g clip-path="url(#clip0)" transform="translate(-373 -1066)"><path d="M375.544 1256.54 777.493 1256.54 777.493 1390.37 375.544 1390.37Z" fill="#D74514" fill-rule="evenodd"/><path d="M777.493 1256.54 1051.3 1256.54 1051.3 1390.37 777.493 1390.37Z" fill="#D74514" fill-rule="evenodd"/><path d="M2412.03 1256.54 2681.68 1256.54 2681.68 1390.37 2412.03 1390.37Z" fill="#D74514" fill-rule="evenodd"/><path d="M777.493 1254.25 777.493 1392.67" stroke="#000000" stroke-width="4.58333" stroke-linejoin="round" stroke-miterlimit="10" fill="none" fill-rule="evenodd"/><path d="M1051.3 1254.25 1051.3 1392.67" stroke="#000000" stroke-width="4.58333" stroke-linejoin="round" stroke-miterlimit="10" fill="none" fill-rule="evenodd"/><path d="M1528.38 1254.25 1528.38 1392.67" stroke="#000000" stroke-width="4.58333" stroke-linejoin="round" stroke-miterlimit="10" fill="none" fill-rule="evenodd"/><path d="M1984.73 1254.25 1984.73 1392.67" stroke="#000000" stroke-width="4.58333" stroke-linejoin="round" stroke-miterlimit="10" fill="none" fill-rule="evenodd"/><path d="M2412.03 1254.25 2412.03 1392.67" stroke="#000000" stroke-width="4.58333" stroke-linejoin="round" stroke-miterlimit="10" fill="none" fill-rule="evenodd"/><path d="M373.252 1256.54 2683.98 1256.54" stroke="#000000" stroke-width="4.58333" stroke-linejoin="round" stroke-miterlimit="10" fill="none" fill-rule="evenodd"/><path d="M375.544 1254.25 375.544 1392.67" stroke="#000000" stroke-width="4.58333" stroke-linejoin="round" stroke-miterlimit="10" fill="none" fill-rule="evenodd"/><path d="M2681.68 1254.25 2681.68 1392.67" stroke="#000000" stroke-width="4.58333" stroke-linejoin="round" stroke-miterlimit="10" fill="none" fill-rule="evenodd"/><path d="M373.252 1390.37 2683.98 1390.37" stroke="#000000" stroke-width="4.58333" stroke-linejoin="round" stroke-miterlimit="10" fill="none" fill-rule="evenodd"/><text font-family="Courier New,Courier New_MSFontService,sans-serif" font-weight="400" font-size="64" transform="matrix(1 0 0 1 538.133 1143)">32<tspan font-size="64" x="-38.3854" y="77">bits</tspan><tspan font-size="64" x="337.878" y="0">16</tspan><tspan font-size="64" x="299.492" y="77">bits</tspan><tspan font-size="64" x="1989.54" y="0">8</tspan><tspan font-size="64" x="1931.95" y="77">bits</tspan><tspan fill="#FFFFFF" font-weight="700" font-size="73" x="-71.9009" y="201">bytes</tspan><tspan fill="#FFFFFF" font-weight="700" font-size="73" x="310.091" y="201">len</tspan><tspan fill="#D74514" font-weight="700" font-size="73" x="641.422" y="201">entry</tspan><tspan fill="#D74514" font-weight="700" font-size="73" x="1108.13" y="201">entry</tspan><tspan fill="#D74514" font-weight="700" font-size="73" x="1549.96" y="201">entry</tspan><tspan fill="#FFFFFF" font-weight="700" font-size="73" x="1942.55" y="201">end</tspan></text></g></svg>
